packages/icons/svg/Outline/browser.svg

<svg fill="none" height="24" viewBox="0 0 24 24" width="24" xmlns="http://www.w3.org/2000/svg"><path clip-rule="evenodd" d="m6.99998 7c0-.553.448-1 1-1s1 .447 1 1-.448 1-1 1-1-.447-1-1zm4.00002 0c0-.553.448-1 1-1s1 .447 1 1-.448 1-1 1-1-.447-1-1zm-5.99998 2.00007v-3c0-.552.449-1 1-1h11.99998c.551 0 1 .448 1 1v3zm13.99998 9.00003c0 .552-.449 1-1 1h-11.99998c-.551 0-1-.448-1-1v-7h13.99998zm-1-15.0001h-12c-1.654 0-3 1.346-3 3v3 2 7c0 1.654 1.346 3 3 3h12c1.654 0 3-1.346 3-3v-7-2-3c0-1.654-1.346-3-3-3z" fill="#6b7280" fill-rule="evenodd"/></svg>

<svg width="24" height="24" viewBox="0 0 24 24" fill="none" xmlns="http://www.w3.org/2000/svg">
<g id="Icon/Outline/browser">
<path id="Mask" fill-rule="evenodd" clip-rule="evenodd" d="M7 7C7 6.447 7.448 6 8 6C8.552 6 9 6.447 9 7C9 7.553 8.552 8 8 8C7.448 8 7 7.553 7 7ZM11 7C11 6.447 11.448 6 12 6C12.552 6 13 6.447 13 7C13 7.553 12.552 8 12 8C11.448 8 11 7.553 11 7ZM5 9V6C5 5.448 5.449 5 6 5H18C18.551 5 19 5.448 19 6V9H5ZM19 18C19 18.552 18.551 19 18 19H6C5.449 19 5 18.552 5 18V11H19V18ZM18 3H6C4.346 3 3 4.346 3 6V9V11V18C3 19.654 4.346 21 6 21H18C19.654 21 21 19.654 21 18V11V9V6C21 4.346 19.654 3 18 3Z" fill="#000000"/>
</g>
</svg>
